X:153
T:AIR XXXI. An the Kirk wad let me be.
O:england
B:Joseph Mitchell: "The Highland Fair" (1731)
M:9/4
L:1/4
K:Gdor
C|F>GF Acd cAF|G>AF GAc  d2f|F>GF fed cAF| GAB     AGF D2:|
c|fcf  fgf edc|dcd  f>ga g2f|fcf  fgf edc|(d/e/f)d cAF G2:|


